gy/si-glyph-glove.svg

<svg viewBox="0 0 16 16" xmlns="http://www.w3.org/2000/svg" class="si-glyph si-glyph-glove" height="1em" width="1em">
  <path d="M13.807 9.708c1.863-1.863 3.68-4.907.307-8.28a4.771 4.771 0 0 0-6.747 0L6.342 2.453v-.719c0-.958-.777-1.735-1.735-1.735C3.648 0 3 .777 3 1.735v4.188l-.847.719-.613-.613L.313 7.256l7.974 7.974 1.227-1.227-.549-.549 4.842-3.746Z" class="si-glyph-fill" fill="#434343" fill-rule="evenodd"/>
</svg>

<svg viewBox="0 0 16 16" version="1.1" xmlns="http://www.w3.org/2000/svg" class="si-glyph si-glyph-glove" height="1em" width="1em">
  <g stroke="none" stroke-width="1" fill="none" fill-rule="evenodd">
    <g fill="#434343">
      <g>
        <path d="M13.807,9.708 C15.67,7.845 17.487,4.801 14.114,1.428 C12.251,-0.435 9.23,-0.435 7.367,1.428 L6.342,2.453 L6.342,1.734 C6.342,0.776 5.565,-0.001 4.607,-0.001 C3.648,-3.33934269e-16 3,0.777 3,1.735 L3,5.923 L2.153,6.642 L1.54,6.029 L0.313,7.256 L8.287,15.23 L9.514,14.003 L8.965,13.454 L13.807,9.708 L13.807,9.708 Z" class="si-glyph-fill"/>
      </g>
    </g>
  </g>
</svg>
